X: 183
T: Nanhuo buguo Renxiangren
%%abc-version 2.0
%%abcx-abcm2ps-target-version 5.9.1 (29 Sep 2008)
%%abc-creator hum2abc beta
%%abcx-conversion-date 2013/10/02 07:52:29
%%abc-edited-by Helmut Schaffrath
%%humdrum-veritas 4002383700
%%humdrum-veritas-data 938158275
%%continueall 1
%%barnumbers 0
L: 1/8
M: 2/4
K: C
d> g d c [I:setbarnb 1]| 
A D G A | 
d3e | 
c B/ A/ G E/ G/ | 
A4 | 
d> g d c | 
A D G A | 
d3e | 
A/ c/ A/ G/ F G/ F/ | 
D4 |]  



